X: 28814
T: My Old Clay Pipe
R: slip jig
M: 9/8
K: Amixolydian
|:fed eAA eAA|fed eAA eAA|
fed eAA A2z|def gdB BAB:|
|:~g3 faf gz2|~a3 aga bae|
[1 ~g3 faf gz2|def gdB BAB:|
[2 bag agf gfe|def gdB BAB||

